dhis-2/dhis-support/dhis-support-system/src/main/resources/SVGs/fever_negative.svg

<svg width="48" height="48" viewBox="0 0 48 48" fill="none" xmlns="http://www.w3.org/2000/svg">
<path d="M0 0V48H48V0H0ZM23.9844 4H24.7246C27.1816 4 28.709 5.23202 28.709 7.2168V31.0879C30.2769 32.2369 31.3577 33.9786 31.6016 35.9668C31.6359 36.2472 31.6562 36.5331 31.6562 36.8223C31.6562 37.0731 31.6412 37.3202 31.6152 37.5645C31.59 37.802 31.5545 38.0354 31.5059 38.2656C31.5051 38.2695 31.5047 38.2735 31.5039 38.2773C30.814 41.5453 27.8317 44.0098 24.2676 44.0098C20.1943 44.0098 16.8789 40.79 16.8789 36.832C16.8789 36.5361 16.8976 36.2436 16.9336 35.957C16.9688 35.6736 17.0215 35.3955 17.0898 35.123C17.4994 33.4895 18.4864 32.073 19.8262 31.0898V7.22852C19.8262 7.22441 19.8281 7.22089 19.8281 7.2168C19.8281 6.98033 19.8535 6.75327 19.9023 6.53711C19.9025 6.5365 19.9022 6.53577 19.9023 6.53516C20.2518 4.9931 21.8047 4 23.9844 4ZM23.9805 4.67383C22.5798 4.67383 20.9766 5.18507 20.5957 6.57422C20.542 6.77007 20.5128 6.98505 20.5117 7.2168V31.4629C20.511 31.4634 20.5105 31.4643 20.5098 31.4648V31.4727C20.2704 31.631 20.042 31.8055 19.8262 31.9922C18.9701 32.7344 18.3126 33.6871 17.9395 34.7676C17.8648 34.9837 17.8011 35.2061 17.75 35.4316C17.7002 35.6535 17.6606 35.8797 17.6348 36.1094C17.6085 36.3431 17.5957 36.5818 17.5957 36.8223C17.5957 40.4033 20.5835 43.3066 24.2695 43.3066C27.2636 43.3066 29.7965 41.3897 30.6406 38.75C30.7557 38.3901 30.8336 38.0146 30.8828 37.6309C30.8886 37.5849 30.8995 37.5404 30.9043 37.4941C30.9271 37.2762 30.9395 37.0559 30.9395 36.832C30.9395 36.5915 30.9267 36.3528 30.9004 36.1191C30.7165 34.4832 29.9055 33.0312 28.707 31.9922C28.4914 31.8053 28.2628 31.6312 28.0234 31.4727V7.22852C28.0234 4.8584 25.4954 4.67383 24.7207 4.67383H23.9824H23.9805ZM22.5605 7.31836H26.6582C26.7533 7.31836 26.8384 7.35719 26.9004 7.41797C26.9623 7.47809 27 7.56078 27 7.65234C26.9997 7.69749 26.9897 7.74015 26.9727 7.7793C26.9724 7.77987 26.9729 7.78067 26.9727 7.78125C26.9554 7.82038 26.9309 7.85511 26.9004 7.88477C26.8692 7.91532 26.8324 7.94003 26.791 7.95703C26.7501 7.97382 26.7054 7.98438 26.6582 7.98438H22.5586C22.5121 7.98438 22.4681 7.97341 22.4277 7.95703C22.4272 7.95682 22.4263 7.95724 22.4258 7.95703C22.3032 7.90657 22.2168 7.78968 22.2168 7.65234C22.2168 7.60559 22.2281 7.56187 22.2461 7.52148C22.2803 7.44289 22.3451 7.37961 22.4258 7.3457C22.4674 7.32822 22.5123 7.31836 22.5605 7.31836ZM24.6094 8.64648H26.6582C26.7533 8.64648 26.8384 8.68531 26.9004 8.74609C26.9623 8.80621 27 8.88891 27 8.98047C26.9989 9.16266 26.8465 9.31055 26.6582 9.31055H24.6094C24.4673 9.31055 24.3464 9.22693 24.2949 9.10742C24.2776 9.06771 24.2676 9.02429 24.2676 8.97852C24.2676 8.93331 24.2781 8.89083 24.2949 8.85156C24.2951 8.85106 24.2947 8.85011 24.2949 8.84961C24.312 8.81038 24.3368 8.77589 24.3672 8.74609C24.429 8.68536 24.5148 8.64648 24.6094 8.64648ZM22.5586 9.97461H26.6582C26.8467 9.97461 27 10.1235 27 10.3066C27 10.3982 26.9623 10.4809 26.9004 10.541C26.8385 10.6011 26.7527 10.6387 26.6582 10.6387H22.5605C22.5599 10.6387 22.5593 10.6387 22.5586 10.6387C22.5495 10.6387 22.5421 10.6335 22.5332 10.6328C22.4956 10.6297 22.459 10.6253 22.4258 10.6113C22.3854 10.5947 22.349 10.5706 22.3184 10.541C22.2558 10.4808 22.2168 10.3988 22.2168 10.3066C22.2168 10.2143 22.2558 10.1324 22.3184 10.0723C22.3801 10.0129 22.4649 9.97461 22.5586 9.97461ZM16.8145 10.3691L18.7793 13.2539H17.3867V22.9395H16.166V13.2539H14.7285L16.8145 10.3691ZM24.6094 11.3027H26.6582C26.8468 11.3027 27 11.4517 27 11.6348C27 11.7721 26.9137 11.889 26.791 11.9395C26.7501 11.9563 26.7054 11.9668 26.6582 11.9668H24.6094C24.5623 11.9668 24.5174 11.9563 24.4766 11.9395C24.3539 11.889 24.2676 11.7721 24.2676 11.6348C24.2676 11.4517 24.4208 11.3027 24.6094 11.3027ZM22.5605 12.6289H26.6582C26.7533 12.6289 26.8384 12.6677 26.9004 12.7285C26.9623 12.7886 27 12.8713 27 12.9629C26.9997 13.0079 26.9897 13.0507 26.9727 13.0898C26.9724 13.0904 26.9729 13.0912 26.9727 13.0918C26.9204 13.2101 26.7994 13.293 26.6582 13.293H22.5605C22.5599 13.293 22.5593 13.293 22.5586 13.293C22.5121 13.293 22.4681 13.2838 22.4277 13.2676C22.4272 13.2674 22.4263 13.2678 22.4258 13.2676C22.3854 13.2511 22.3491 13.2246 22.3184 13.1953C22.2558 13.1356 22.2168 13.055 22.2168 12.9629C22.2168 12.9161 22.2281 12.8724 22.2461 12.832C22.2803 12.7534 22.3451 12.6902 22.4258 12.6562C22.4674 12.6388 22.5123 12.6289 22.5605 12.6289ZM24.6094 13.957H26.6582C26.7527 13.957 26.8385 13.9946 26.9004 14.0547C26.9623 14.1143 27 14.1975 27 14.2891C27 14.4722 26.8468 14.6211 26.6582 14.6211H24.6094C24.4209 14.6211 24.2676 14.4722 24.2676 14.2891C24.2676 14.1975 24.3053 14.1143 24.3672 14.0547C24.4289 13.9946 24.5154 13.957 24.6094 13.957ZM23.0156 15.4609C23.0426 15.4613 23.0655 15.4724 23.0918 15.4746C23.2033 15.484 23.3123 15.4998 23.4141 15.5371C23.4763 15.5598 23.5338 15.5968 23.5938 15.627C23.6536 15.6572 23.7148 15.6814 23.7734 15.7168C23.7739 15.7171 23.7749 15.7165 23.7754 15.7168C24.4831 16.1449 25.1414 16.8724 26.6582 15.9492V32.25C26.8723 32.3561 27.0773 32.475 27.2734 32.6074C27.47 32.7401 27.6561 32.8863 27.832 33.043C28.0076 33.1994 28.1717 33.367 28.3242 33.5449C29.0869 34.434 29.5488 35.5773 29.5488 36.8223C29.5488 37.7565 29.2694 38.6196 28.8184 39.375C28.7572 39.4774 28.7126 39.5897 28.6445 39.6875C28.6442 39.688 28.6449 39.689 28.6445 39.6895C28.5573 39.8147 28.4456 39.92 28.3477 40.0371C28.2321 40.1752 28.1275 40.3216 27.998 40.4473C27.0421 41.3764 25.7232 41.9531 24.2676 41.9531C23.5398 41.9531 22.8464 41.8088 22.2148 41.5488C21.5833 41.2888 21.0133 40.9118 20.5352 40.4473C20.057 39.9827 19.67 39.43 19.4023 38.8164C19.3354 38.663 19.2761 38.5063 19.2246 38.3457C19.07 37.864 18.9863 37.3527 18.9863 36.8223C18.9863 36.5731 19.0055 36.3276 19.041 36.0879C19.1477 35.3688 19.4076 34.6983 19.7891 34.1074C20.2976 33.3196 21.0207 32.6745 21.877 32.25V15.9492C22.3376 15.5865 22.7009 15.4583 23.0156 15.4609ZM26.4512 34.9297C26.0833 34.9297 25.7494 35.0731 25.5078 35.3066C25.5072 35.3073 25.5065 35.308 25.5059 35.3086C25.4693 35.3441 25.4521 35.3942 25.4199 35.4336C25.3465 35.5239 25.2675 35.6113 25.2207 35.7188C25.2205 35.7192 25.2209 35.7202 25.2207 35.7207C25.2102 35.7449 25.2063 35.772 25.1973 35.7969C25.1487 35.9313 25.1172 36.074 25.1172 36.2246C25.1172 36.5826 25.2659 36.9076 25.5078 37.1426C25.6888 37.3184 25.9217 37.4439 26.1816 37.4961C26.2691 37.5136 26.3603 37.5234 26.4531 37.5234C26.5446 37.5233 26.6345 37.5132 26.7207 37.4961C26.8076 37.4788 26.8929 37.4528 26.9727 37.4199C27.0269 37.3976 27.0669 37.3551 27.1172 37.3262C27.214 37.2705 27.3154 37.2195 27.3945 37.1426C27.5152 37.0252 27.6122 36.8856 27.6797 36.7305C27.7472 36.5753 27.7852 36.4056 27.7852 36.2266C27.7852 35.5102 27.1882 34.9297 26.4512 34.9297Z" fill="#333333"/>
</svg>

<?xml version="1.0" encoding="UTF-8" standalone="no"?>
<!-- Created with Inkscape (http://www.inkscape.org/) -->
<svg id="svg8" xmlns:rdf="http://www.w3.org/1999/02/22-rdf-syntax-ns#" xmlns="http://www.w3.org/2000/svg" xmlns:osb="http://www.openswatchbook.org/uri/2009/osb" height="48" width="48" version="1.1" xmlns:cc="http://creativecommons.org/ns#" viewBox="0 0 12.7 12.7" xmlns:dc="http://purl.org/dc/elements/1.1/">
 <title id="title4753">UIO-icon</title>
 <metadata id="metadata5">
  <rdf:RDF>
   <cc:Work rdf:about="">
    <dc:format>image/svg+xml</dc:format>
    <dc:type rdf:resource="http://purl.org/dc/dcmitype/StillImage"/>
    <dc:title>UIO-icon</dc:title>
    <dc:creator>
     <cc:Agent>
      <dc:title>Joaquín Urbano</dc:title>
     </cc:Agent>
    </dc:creator>
    <dc:rights>
     <cc:Agent>
      <dc:title>GPL</dc:title>
     </cc:Agent>
    </dc:rights>
   </cc:Work>
  </rdf:RDF>
 </metadata>
 <g id="layer1" fill="#333" transform="translate(0,-284.3)">
  <path id="rect888" d="m0 0v48h48v-48h-48zm23.984 4h0.741c2.457 0 3.984 1.232 3.984 3.2168v23.871c1.789 1.311 2.947 3.394 2.947 5.734 0 3.958-3.313 7.178-7.386 7.178-4.074 0-7.389-3.22-7.389-7.178 0-2.34 1.159-4.423 2.947-5.734v-23.871c0-1.9246 1.67-3.217 4.156-3.217zm0 0.6641c-1.601 0-3.472 0.6675-3.472 2.5527v24.246c-0.24 0.158-0.468 0.333-0.684 0.519-1.37 1.188-2.232 2.916-2.232 4.84 0 3.581 2.988 6.485 6.674 6.485 3.685 0 6.672-2.904 6.671-6.485 0-1.924-0.862-3.652-2.232-4.84-0.216-0.186-0.444-0.361-0.684-0.519v-24.246c0-2.3703-2.528-2.5529-3.302-2.5529h-0.739zm-1.423 2.6543h4.097c0.189 0 0.342 0.1489 0.342 0.332 0 0.1835-0.153 0.332-0.342 0.332h-4.097c-0.189 0-0.342-0.1489-0.342-0.332s0.153-0.332 0.342-0.332zm2.048 1.3281h2.049c0.189 0 0.342 0.1489 0.342 0.332s-0.153 0.332-0.342 0.332h-2.049c-0.188 0-0.341-0.1489-0.341-0.332 0-0.1835 0.153-0.332 0.341-0.332zm-2.048 1.3281h4.097c0.189 0 0.342 0.1494 0.342 0.3324s-0.153 0.332-0.342 0.332h-4.097c-0.189 0-0.342-0.149-0.342-0.332 0-0.184 0.153-0.3324 0.342-0.3324zm2.048 1.3284h2.049c0.189 0 0.342 0.149 0.342 0.332s-0.153 0.33-0.342 0.33h-2.049c-0.188 0-0.341-0.147-0.341-0.33s0.153-0.332 0.341-0.332zm-2.048 1.326h4.097c0.189 0 0.342 0.149 0.342 0.332s-0.153 0.332-0.342 0.332h-4.097c-0.189 0-0.342-0.149-0.342-0.332s0.153-0.332 0.342-0.332zm2.048 1.328h2.049c0.189 0 0.342 0.149 0.342 0.332s-0.153 0.332-0.342 0.332h-2.049c-0.188 0-0.341-0.149-0.341-0.332s0.153-0.332 0.341-0.332zm-1.591 1.504c1.123 0.014 1.617 1.72 3.64 0.488v16.301c1.713 0.849 2.891 2.579 2.891 4.572 0 2.829-2.37 5.131-5.281 5.131-2.912 0-5.28-2.302-5.28-5.131 0-1.993 1.176-3.723 2.889-4.572v-16.301c0.461-0.362 0.826-0.491 1.141-0.488zm3.435 19.467c-0.738 0-1.336 0.58-1.336 1.297 0 0.716 0.599 1.298 1.336 1.298s1.334-0.582 1.334-1.298c0-0.717-0.597-1.297-1.334-1.297z" fill-rule="evenodd" transform="matrix(.26458 0 0 .26458 0 284.3)"/>
 </g>
</svg>
